frontend/svgs/biz044.svg

<?xml version="1.0" encoding="UTF-8"?> <svg width="100px" height="100px" viewBox="0 0 100 100" version="1.1" xmlns="http://www.w3.org/2000/svg" xmlns:xlink="http://www.w3.org/1999/xlink"> <g id="44.-Megaphone" stroke="none" stroke-width="1" fill="none" fill-rule="evenodd" stroke-linecap="round" stroke-linejoin="round"> <path d="M51.92,30.388125 C51.92,30.388125 75.11375,30.388125 90.32,10.9659375 L90.32,78.12 C74.89775,58.910625 51.92,58.910625 51.92,58.910625 L51.92,30.388125 Z" id="Layer-2" stroke="#D1DDEB" stroke-width="4" fill="#D1DDEB"></path> <path d="M11.6,56.04 L6.8,56.04 C4.1490332,56.04 2,53.8931424 2,51.2381062 L2,37.8018938 C2,35.1498811 4.15442739,33 6.8,33 L11.6,33" id="Layer-4" stroke="#D1DDEB" stroke-width="4" fill="#D1DDEB"></path> <path d="M30.8,61.8 L19.28,61.8 L19.28,86.7606962 C19.28,88.8846771 20.9974327,90.6 23.1159932,90.6 L33.127423,90.5999999 C34.9785858,90.6 37.0997153,88.0364903 35.1659375,85.8 C35.1659375,85.8 30.8,80.634375 30.8,78.9079688 C30.8,76.0414415 30.8,61.8 30.8,61.8 Z" id="Layer-6" stroke="#D1DDEB" stroke-width="4" fill="#D1DDEB"></path> <rect id="Layer-3" stroke="#EC7F77" stroke-width="4" fill="#EC7F77" x="13.52" y="27.24" width="38.4" height="34.56" rx="3"></rect> <rect id="Layer-1" stroke="#A4B8CE" stroke-width="4" fill="#A4B8CE" x="90.32" y="9" width="7.68" height="71.04" rx="3.84"></rect> </g> </svg>

<svg width="100" height="100" xmlns="http://www.w3.org/2000/svg"><g fill="none" fill-rule="evenodd" stroke-linecap="round" stroke-linejoin="round" stroke-width="4"><path d="M51.92 30.388s23.194 0 38.4-19.422V78.12c-15.422-19.21-38.4-19.21-38.4-19.21V30.389zM11.6 56.04H6.8A4.799 4.799 0 012 51.238V37.802A4.804 4.804 0 016.8 33h4.8M30.8 61.8H19.28v24.96a3.835 3.835 0 003.836 3.84h10.011c1.852 0 3.973-2.564 2.039-4.8 0 0-4.366-5.166-4.366-6.892V61.8z" stroke="#D1DDEB" fill="#D1DDEB"/><rect stroke="#EC7F77" fill="#EC7F77" x="13.52" y="27.24" width="38.4" height="34.56" rx="3"/><rect stroke="#A4B8CE" fill="#A4B8CE" x="90.32" y="9" width="7.68" height="71.04" rx="3.84"/></g></svg>
